!!!COM: the-sounds-of-science
!!!OTL: the-nanosong
!!!RNB: hooktheoryid: nRPxeOBLmb_
**kern	**text
*clefG2	*
*k[b-e-a-d-g-]	*
*M4/4	*
=1	=1
8r	Gb
4b-	.
8cc	.
4dd-	Gdim
8cc	.
8b-	.
=2	=2
2a-	Db/Ab
4f	Bb7
8d-	.
8d-	.
=3	=3
4g-	Ebm
4b-	.
4a-	Ab/C
4e-	.
=4	=4
2f	Db
4.r	Db7
8d-	.
=5	=5
4b-	Gb
4cc	.
8dd-	Gbm
8cc	.
8dd-	.
8ee-	.
=6	=6
4ff	Db/Ab
4ee-	.
8dd	Bb7
8b-	.
8b-	.
8b-	.
=7	=7
4dd-	Eb7
4b-	.
4cc	Ab7
4a-	.
=8	=8
2dd-	Db
2r	.
*-	*-